X:3658
T:Curt Lawrence's Hornpipe
M:2/4
L:1/16
K:G
B,2|D2GF GABc|d2B2 B2ef|gfed efga|bagf e2ga|!
b2bg a2af|gfge d3B|egfa gfef|g2G2 G2:|!
|:ga|bagf gabg|agfe d2ef|gfed efge|dcBA B2gf|!
ecce dBBd|cAAc BGGB|gfed efga|b2g2 g2:|!


